icons/24x24_invoice_outline.svg

<svg xmlns="http://www.w3.org/2000/svg" width="24" height="24" viewBox="0 0 24 24">
  <path fill-rule="evenodd" d="M7,5.00014285 C7,3.89557335 7.8954305,3.00014285 9,3.00014285 L19,3 L19.0001429,3.00000001 C20.1047124,3.0000789 21.0000789,3.89557336 21,5.00014286 L20.9998571,5.00014285 L20.999,17.0001429 C20.999,19.2061429 19.204,21.0001429 16.999,21.0001429 L7,21.0001429 C4.795,21.0001429 3,19.2061429 3,17.0001429 L3,16.0001429 C3,15.4478581 3.44771525,15.0001429 4,15.0001429 L7,15.0001429 L7,5.00014285 Z M18.999,17.0001429 L19,5.00014285 L9,5.00014285 L9,19.0001429 L16.999,19.0001429 C18.102,19.0001429 18.999,18.1031429 18.999,17.0001429 Z M12,9.00007143 L16,9.00007143 C16.5522847,9.00007143 17,9.44778668 17,10.0000714 C17,10.5523562 16.5522847,11.0000714 16,11.0000714 L12,11.0000714 C11.4477153,11.0000714 11,10.5523562 11,10.0000714 C11,9.44778668 11.4477153,9.00007143 12,9.00007143 Z M12,13.0000714 L16,13.0000714 C16.5522847,13.0000714 17,13.4477867 17,14.0000714 C17,14.5523562 16.5522847,15.0000714 16,15.0000714 L12,15.0000714 C11.4477153,15.0000714 11,14.5523562 11,14.0000714 C11,13.4477867 11.4477153,13.0000714 12,13.0000714 Z"/>
</svg>

<svg width="24" height="24" fill="none" xmlns="http://www.w3.org/2000/svg"><path fill-rule="evenodd" clip-rule="evenodd" d="M7 5a2 2 0 0 1 2-2h10a2 2 0 0 1 2 2l-.001 12c0 2.206-1.795 4-4 4H7c-2.205 0-4-1.794-4-4v-1a1 1 0 0 1 1-1h3V5Zm11.999 12L19 5H9v14h7.999c1.103 0 2-.897 2-2ZM12 9h4a1 1 0 1 1 0 2h-4a1 1 0 1 1 0-2Zm0 4h4a1 1 0 1 1 0 2h-4a1 1 0 1 1 0-2Z" fill="#000"/></svg>
